X:1
T:Polka
C:traditionell
R:polka
A:Lungau
%%textfont Helvetica-Narrow 10pt
%%begintext align
B:"Sing- u. Spielbuch f. d. Schule", K.Lerpinger, K.Schmidt, E. Wuerzl, Verlag f. Jugend u. Volk, Wien
S:Slg.Eberhard
Z:abc transcription Simon Wascher
M:2/4
L:1/8
K:G
G/A/ |\
BB BA/B/ | cc ce | d/f/f c/e/e | B/d/d G/F/G/A/ |
BB BA/B/ | cc ce | d/f/f ef | gG G :|
K:C
|: G |\
G>e dc | dA A/^G/A | BF B>A | AG G/^F/G |
G>e dc | dA A/^G/A | =G/A/B/c/ de | cec :|
%%wordsfont Times-Italic 11pt
W:aus Simon Waschers TradArchiv
